svg/fluentui-system-icons/ic_fluent_clipboard_task_20_regular.svg

<svg width="20" height="20" viewBox="0 0 20 20" fill="none" xmlns="http://www.w3.org/2000/svg">
<path d="M12.8536 9.85355C13.0488 9.65829 13.0488 9.34171 12.8536 9.14645C12.6583 8.95118 12.3417 8.95118 12.1464 9.14645L9 12.2929L7.85355 11.1464C7.65829 10.9512 7.34171 10.9512 7.14645 11.1464C6.95118 11.3417 6.95118 11.6583 7.14645 11.8536L8.64645 13.3536C8.84171 13.5488 9.15829 13.5488 9.35355 13.3536L12.8536 9.85355ZM8.5 2C7.84689 2 7.29127 2.4174 7.08535 3H5.5C4.67157 3 4 3.67157 4 4.5V16.5C4 17.3284 4.67157 18 5.5 18H14.5C15.3284 18 16 17.3284 16 16.5V4.5C16 3.67157 15.3284 3 14.5 3H12.9146C12.7087 2.4174 12.1531 2 11.5 2H8.5ZM8 3.5C8 3.22386 8.22386 3 8.5 3H11.5C11.7761 3 12 3.22386 12 3.5C12 3.77614 11.7761 4 11.5 4H8.5C8.22386 4 8 3.77614 8 3.5ZM5.5 4H7.08535C7.29127 4.5826 7.84689 5 8.5 5H11.5C12.1531 5 12.7087 4.5826 12.9146 4H14.5C14.7761 4 15 4.22386 15 4.5V16.5C15 16.7761 14.7761 17 14.5 17H5.5C5.22386 17 5 16.7761 5 16.5V4.5C5 4.22386 5.22386 4 5.5 4Z" fill="#212121"/>
</svg>

<svg xmlns="http://www.w3.org/2000/svg" width="20" height="20"><path d="M12.854 9.854a.5.5 0 0 0-.708-.708L9 12.293l-1.146-1.147a.5.5 0 0 0-.708.708l1.5 1.5a.5.5 0 0 0 .708 0l3.5-3.5ZM8.5 2a1.5 1.5 0 0 0-1.415 1H5.5A1.5 1.5 0 0 0 4 4.5v12A1.5 1.5 0 0 0 5.5 18h9a1.5 1.5 0 0 0 1.5-1.5v-12A1.5 1.5 0 0 0 14.5 3h-1.585A1.5 1.5 0 0 0 11.5 2h-3ZM8 3.5a.5.5 0 0 1 .5-.5h3a.5.5 0 0 1 0 1h-3a.5.5 0 0 1-.5-.5ZM5.5 4h1.585A1.5 1.5 0 0 0 8.5 5h3a1.5 1.5 0 0 0 1.415-1H14.5a.5.5 0 0 1 .5.5v12a.5.5 0 0 1-.5.5h-9a.5.5 0 0 1-.5-.5v-12a.5.5 0 0 1 .5-.5Z"/></svg>
